wp-content/themes/blackfoot/assets/img/powered-by-stripe.svg

<?xml version="1.0" encoding="UTF-8" standalone="no"?>
<svg width="119px" height="26px" viewBox="0 0 119 26" version="1.1" xmlns="http://www.w3.org/2000/svg" xmlns:xlink="http://www.w3.org/1999/xlink" xmlns:sketch="http://www.bohemiancoding.com/sketch/ns">
    <!-- Generator: Sketch 3.4 (15575) - http://www.bohemiancoding.com/sketch -->
    <title>solid</title>
    <desc>Created with Sketch.</desc>
    <defs></defs>
    <g id="Page-1" stroke="none" stroke-width="1" fill="none" fill-rule="evenodd" sketch:type="MSPage">
        <path d="M12.44,12.52 L11.717,12.52 L11.717,9.745 L12.501,9.745 C13.558,9.745 14.119,10.206 14.119,11.101 C14.119,12.084 13.497,12.52 12.44,12.52 L12.44,12.52 Z M19.161,15.917 C18.29,15.917 17.805,15.107 17.805,14.013 C17.805,12.893 18.278,12.097 19.161,12.097 C20.056,12.097 20.554,12.906 20.554,14.013 C20.554,15.133 20.082,15.917 19.161,15.917 L19.161,15.917 Z M34.535,11.911 C35.257,11.911 35.63,12.433 35.729,13.367 L33.329,13.367 C33.439,12.396 33.938,11.911 34.535,11.911 L34.535,11.911 Z M45.439,11.911 C46.161,11.911 46.535,12.433 46.633,13.367 L44.232,13.367 C44.345,12.396 44.843,11.911 45.439,11.911 L45.439,11.911 Z M51.775,15.804 C51.116,15.804 50.618,15.256 50.618,14.088 C50.618,12.769 51.192,12.134 51.974,12.134 C52.485,12.134 52.771,12.221 53.144,12.396 L53.144,14.983 C52.745,15.481 52.323,15.804 51.775,15.804 L51.775,15.804 Z M61.509,15.867 C61.086,15.867 60.876,15.817 60.564,15.705 L60.564,12.979 C60.937,12.533 61.385,12.197 61.883,12.197 C62.555,12.197 63.028,12.769 63.028,13.926 C63.028,15.295 62.455,15.867 61.509,15.867 L61.509,15.867 Z M99.213,16.243 C98.956,16.243 98.731,16.191 98.525,16.089 L98.525,12.293 C98.956,11.842 99.346,11.79 99.489,11.79 C100.137,11.79 100.453,12.488 100.453,13.852 C100.453,14.633 100.341,15.237 100.105,15.648 C99.901,16.037 99.583,16.243 99.213,16.243 L99.213,16.243 Z M107.509,11.575 C108.084,11.575 108.381,12.276 108.422,13.404 L106.545,13.404 C106.617,12.264 106.924,11.575 107.509,11.575 L107.509,11.575 Z M109.992,10.939 C109.437,10.222 108.606,9.853 107.551,9.853 C105.386,9.853 104.041,11.453 104.041,14.017 C104.041,15.452 104.401,16.53 105.108,17.217 C105.745,17.832 106.657,18.141 107.837,18.141 C108.925,18.141 109.93,17.883 110.565,17.462 L110.289,15.719 C109.664,16.058 108.934,16.243 108.115,16.243 C107.621,16.243 107.284,16.14 107.037,15.925 C106.77,15.698 106.617,15.486 106.566,14.962 L110.78,14.962 C110.792,14.84 110.813,14.265 110.813,14.08 C110.813,12.809 110.535,11.647 109.992,10.939 L109.992,10.939 Z M102.218,10.723 C101.768,10.14 101.141,9.853 100.341,9.853 C99.603,9.853 98.956,10.159 98.352,10.805 L98.218,10.007 L95.982,10.007 L95.982,20.972 L98.525,20.551 L98.525,17.956 C98.916,18.079 99.316,18.141 99.674,18.141 C100.31,18.141 101.234,17.977 101.951,17.197 C102.639,16.449 102.987,15.288 102.987,13.76 C102.987,12.406 102.732,11.381 102.218,10.723 L102.218,10.723 Z M93.522,6.247 C92.773,6.247 92.178,6.843 92.178,7.592 C92.178,8.329 92.773,8.935 93.522,8.935 C94.259,8.935 94.855,8.329 94.855,7.592 C94.855,6.843 94.259,6.247 93.522,6.247 L93.522,6.247 Z M91.28,9.957 C91.105,9.917 90.952,9.896 90.798,9.896 C90.08,9.896 89.63,10.273 89.405,10.95 L89.251,10.007 L87.025,10.007 L87.025,17.986 L89.569,17.986 L89.569,12.806 C89.887,12.417 90.213,12.276 90.829,12.276 C90.962,12.276 91.105,12.276 91.28,12.306 L91.28,9.957 L91.28,9.957 Z M84.602,10.007 L84.602,7.715 L82.419,8.074 L82.102,10.007 L81.334,10.13 L80.953,11.893 L82.099,11.893 L82.099,15.597 C82.099,16.561 82.346,17.228 82.848,17.638 C83.269,17.977 83.874,18.141 84.726,18.141 C85.382,18.141 85.782,18.028 86.06,17.956 L86.06,15.955 C85.905,15.997 85.557,16.068 85.32,16.068 C84.817,16.068 84.602,15.812 84.602,15.227 L84.602,11.893 L85.92,11.893 L86.227,10.007 L84.602,10.007 L84.602,10.007 Z M77.974,11.729 C78.744,11.729 79.345,12.027 79.889,12.293 L80.196,10.396 C79.766,10.19 79.072,9.853 77.85,9.853 C76.989,9.853 76.271,10.077 75.758,10.498 C75.225,10.939 74.948,11.575 74.948,12.345 C74.948,13.739 75.798,14.334 77.184,14.837 C78.077,15.155 78.374,15.382 78.374,15.73 C78.374,16.068 78.087,16.264 77.563,16.264 C76.917,16.264 75.85,15.946 75.152,15.534 L74.846,17.453 C75.44,17.792 76.547,18.141 77.696,18.141 C78.61,18.141 79.369,17.925 79.881,17.514 C80.457,17.064 80.754,16.397 80.754,15.534 C80.754,14.109 79.881,13.515 78.477,13.012 C77.728,12.735 77.317,12.52 77.317,12.181 C77.317,11.893 77.553,11.729 77.974,11.729 L77.974,11.729 Z M69.488,11.001 L68.169,15.182 L66.776,10.915 L65.221,11.114 L67.398,17.037 L67.311,17.284 C67.075,17.845 66.726,18.044 66.254,18.044 C65.992,18.044 65.78,18.007 65.594,17.957 L65.793,19.214 C65.929,19.251 66.079,19.275 66.403,19.275 C67.485,19.275 68.182,18.839 68.691,17.397 L70.994,11.001 L69.488,11.001 L69.488,11.001 Z M62.269,10.878 C61.509,10.878 60.95,11.276 60.564,11.673 L60.564,8.029 L59.072,8.265 L59.072,16.688 C59.817,16.937 60.601,17.086 61.535,17.086 C63.326,17.086 64.533,16.053 64.533,13.839 C64.533,11.823 63.537,10.878 62.269,10.878 L62.269,10.878 Z M54.637,8.029 L53.144,8.265 L53.144,11.164 C52.784,11.04 52.323,10.94 51.751,10.94 C50.358,10.94 49.125,11.935 49.125,14.175 C49.125,16.203 50.133,17.136 51.389,17.136 C52.223,17.136 52.808,16.688 53.231,16.177 L53.356,17.011 L54.637,17.011 L54.637,8.029 L54.637,8.029 Z M45.476,10.878 C43.91,10.878 42.74,12.06 42.74,14.013 C42.74,16.177 43.996,17.136 45.675,17.136 C46.646,17.136 47.43,16.849 48.078,16.402 L47.903,15.232 C47.244,15.692 46.609,15.978 45.838,15.978 C44.917,15.978 44.282,15.481 44.208,14.299 L48.078,14.299 C48.078,14.212 48.089,14.062 48.089,13.939 C48.089,12.234 47.281,10.878 45.476,10.878 L45.476,10.878 Z M41.904,10.878 C40.971,10.928 40.373,11.512 39.974,12.208 L39.788,11.001 L38.52,11.001 L38.52,17.011 L40.013,17.011 L40.013,13.564 C40.436,12.918 41.207,12.42 42.14,12.357 L41.904,10.878 L41.904,10.878 Z M34.572,10.878 C33.004,10.878 31.836,12.06 31.836,14.013 C31.836,16.177 33.092,17.136 34.772,17.136 C35.742,17.136 36.526,16.849 37.172,16.402 L36.999,15.232 C36.338,15.692 35.705,15.978 34.932,15.978 C34.013,15.978 33.378,15.481 33.303,14.299 L37.172,14.299 C37.172,14.212 37.185,14.062 37.185,13.939 C37.185,12.234 36.377,10.878 34.572,10.878 L34.572,10.878 Z M29.765,11.001 L28.732,14.97 L27.65,11.001 L26.331,11.001 L25.248,14.983 L24.191,10.915 L22.674,11.114 L24.465,17.024 L25.833,17.024 L26.916,13.055 L28.023,17.024 L29.392,17.024 L31.184,11.001 L29.765,11.001 L29.765,11.001 Z M19.174,10.878 C17.543,10.878 16.349,12.06 16.349,14.013 C16.349,15.966 17.532,17.136 19.161,17.136 C20.804,17.136 22.01,15.966 22.01,14.013 C22.01,12.06 20.816,10.878 19.174,10.878 L19.174,10.878 Z M12.588,8.427 L10.075,8.427 L10.075,17.011 L11.717,17.011 L11.717,13.85 L12.451,13.85 C14.418,13.85 15.736,12.918 15.736,11.064 C15.736,9.335 14.555,8.427 12.588,8.427 L12.588,8.427 Z M92.239,17.986 L94.792,17.986 L94.792,10.007 L92.239,10.007 L92.239,17.986 Z M113.001,26.001 L6,26.001 C2.687,26.001 0,23.315 0,20 L0,6.001 C0,2.686 2.687,0 6,0 L113.001,0 C116.314,0 119.001,2.686 119.001,6.001 L119.001,20 C119.001,23.315 116.314,26.001 113.001,26.001 L113.001,26.001 Z" id="solid" fill="#665F5A" sketch:type="MSShapeGroup"></path>
    </g>
</svg>

<svg xmlns="http://www.w3.org/2000/svg" width="119" height="26"><title>solid</title><desc>Created with Sketch.</desc><g fill="none"><path fill="#665F5A" d="M12.44 12.52h-.72V9.74h.78c1.06 0 1.62.47 1.62 1.36 0 .98-.62 1.42-1.68 1.42zm6.72 3.4c-.87 0-1.36-.8-1.36-1.9 0-1.13.48-1.92 1.36-1.92.9 0 1.4.8 1.4 1.9 0 1.13-.48 1.92-1.4 1.92zm15.37-4c.73 0 1.1.5 1.2 1.45h-2.4c.1-.97.6-1.46 1.2-1.46zm10.9 0c.73 0 1.1.5 1.2 1.45h-2.4c.12-.97.6-1.46 1.2-1.46zm6.34 3.88c-.65 0-1.15-.54-1.15-1.7 0-1.33.57-1.97 1.35-1.97.52 0 .8.1 1.17.27v2.58c-.4.5-.82.82-1.37.82zm9.74.07c-.4 0-.62-.05-.94-.16v-2.72c.38-.45.82-.78 1.32-.78.67 0 1.15.57 1.15 1.73 0 1.37-.58 1.94-1.52 1.94zm37.7.37c-.24 0-.47-.05-.67-.15v-3.8c.43-.46.82-.5.96-.5.64 0 .95.7.95 2.05 0 .78-.1 1.4-.34 1.8-.2.4-.52.6-.9.6zm8.3-4.66c.58 0 .88.7.92 1.82h-1.88c.08-1.14.38-1.83.97-1.83zm2.5-.64c-.56-.72-1.4-1.1-2.45-1.1-2.16 0-3.5 1.6-3.5 4.18 0 1.43.35 2.5 1.06 3.2.65.6 1.56.92 2.74.92 1.08 0 2.1-.26 2.72-.68l-.27-1.74c-.64.34-1.37.52-2.2.52-.48 0-.82-.1-1.06-.3-.27-.24-.42-.45-.47-.98h4.2c.02-.12.04-.7.04-.88 0-1.27-.27-2.43-.8-3.14zm-7.78-.22c-.45-.58-1.08-.87-1.88-.87-.74 0-1.38.3-2 .96l-.12-.8h-2.24v10.97l2.55-.42v-2.6c.4.13.8.2 1.14.2.64 0 1.56-.17 2.28-.95.7-.75 1.04-1.9 1.04-3.44 0-1.35-.27-2.38-.78-3.04zm-8.7-4.47c-.75 0-1.34.6-1.34 1.34 0 .73.6 1.34 1.34 1.34.74 0 1.34-.6 1.34-1.35 0-.76-.6-1.35-1.34-1.35zm-2.24 3.7c-.17-.03-.33-.05-.48-.05-.72 0-1.17.37-1.4 1.05l-.15-.94h-2.22v8h2.54v-5.2c.32-.38.64-.52 1.26-.52.13 0 .28 0 .45.03V9.97zm-6.68.06V7.7l-2.18.37L82.1 10l-.77.13-.38 1.76h1.15v3.7c0 .96.25 1.63.75 2.04.42.34 1.02.5 1.88.5.65 0 1.05-.1 1.33-.18v-2c-.16.04-.5.1-.74.1-.5 0-.72-.25-.72-.83V11.9h1.32l.3-1.9H84.6zm-6.63 1.73c.77 0 1.38.3 1.92.56l.3-1.9c-.43-.2-1.13-.55-2.35-.55-.86 0-1.58.23-2.1.65-.53.44-.8 1.07-.8 1.85 0 1.4.85 1.98 2.23 2.5.9.3 1.2.53 1.2.88 0 .34-.3.53-.82.53-.64 0-1.7-.3-2.4-.73l-.3 1.92c.58.34 1.7.7 2.84.7.9 0 1.67-.22 2.18-.64.58-.44.87-1.1.87-1.97 0-1.42-.87-2-2.27-2.52-.75-.27-1.16-.48-1.16-.82 0-.3.23-.45.65-.45zM69.5 11l-1.33 4.18-1.4-4.27-1.55.2 2.18 5.94-.1.24c-.22.56-.57.76-1.05.76-.26 0-.47-.03-.66-.08l.2 1.25c.13.05.28.07.6.07 1.08 0 1.78-.43 2.3-1.87L71 11h-1.5zm-7.23-.12c-.76 0-1.32.4-1.7.8V8.02l-1.5.24v8.42c.75.24 1.53.4 2.46.4 1.8 0 3-1.05 3-3.26 0-2.02-1-2.96-2.26-2.96zm-7.63-2.85l-1.5.24v2.9c-.36-.13-.82-.23-1.4-.23-1.38 0-2.62 1-2.62 3.24 0 2.02 1 2.96 2.27 2.96.82 0 1.4-.45 1.83-.96l.13.83h1.28V8.04zm-9.16 2.85c-1.57 0-2.74 1.18-2.74 3.13 0 2.18 1.26 3.14 2.93 3.14.98 0 1.76-.3 2.4-.74l-.17-1.17c-.66.46-1.3.75-2.06.75-.92 0-1.56-.5-1.63-1.68h3.88c0-.1 0-.24 0-.36 0-1.7-.8-3.06-2.6-3.06zm-3.58 0c-.93.05-1.53.63-1.93 1.33L39.8 11H38.5v6h1.5v-3.44c.42-.64 1.2-1.14 2.12-1.2l-.24-1.48zm-7.33 0c-1.57 0-2.73 1.18-2.73 3.13 0 2.18 1.25 3.14 2.93 3.14.97 0 1.76-.3 2.4-.74L37 15.23c-.66.46-1.3.75-2.07.75-.92 0-1.55-.5-1.63-1.68h3.87c0-.1.02-.24.02-.36-.02-1.7-.82-3.06-2.63-3.06zm-4.8.12l-1.04 3.97L27.65 11h-1.32l-1.08 3.98-1.06-4.07-1.53.2 1.8 5.92h1.36l1.1-3.96 1.1 3.96h1.36L31.17 11h-1.42zm-10.6-.12c-1.63 0-2.82 1.18-2.82 3.13 0 1.97 1.18 3.14 2.8 3.14 1.65 0 2.86-1.17 2.86-3.13 0-1.94-1.18-3.12-2.83-3.12zM12.6 8.43h-2.53V17h1.65v-3.15h.73c1.97 0 3.3-.93 3.3-2.8 0-1.7-1.2-2.62-3.16-2.62zM92.23 18h2.55v-8h-2.56v8zM113 26H6c-3.3 0-6-2.68-6-6V6c0-3.3 2.7-6 6-6h107c3.3 0 6 2.7 6 6v14c0 3.32-2.7 6-6 6z"/></g></svg>
